resources/icons/20px/one-to-many.svg

<svg width="20" height="20" viewBox="0 0 20 20" fill="none" xmlns="http://www.w3.org/2000/svg">
<path fill-rule="evenodd" clip-rule="evenodd" d="M18 3C18 3.55228 17.5523 4 17 4C16.4477 4 16 3.55228 16 3C16 2.44772 16.4477 2 17 2C17.5523 2 18 2.44772 18 3ZM14.1808 4.02813C13.6934 4.0667 13.0943 4.1581 12.5131 4.3746C11.5663 4.7273 10.74 5.3754 10.4812 6.69275C10.1582 8.3372 9.24677 9.36818 8.21726 10C9.24677 10.6318 10.1582 11.6628 10.4812 13.3073C10.74 14.6246 11.5663 15.2727 12.5131 15.6254C13.0943 15.8419 13.6934 15.9333 14.1808 15.9719C14.6005 14.8214 15.7043 14 17 14C18.6569 14 20 15.3431 20 17C20 18.6569 18.6569 20 17 20C15.6849 20 14.5674 19.1538 14.1624 17.9761C13.5288 17.9341 12.6708 17.8184 11.815 17.4996C10.4129 16.9773 8.94749 15.8754 8.51875 13.6927C8.25999 12.3754 7.43371 11.7273 6.48687 11.3746C6.24638 11.285 6.00283 11.2168 5.76541 11.165C5.31064 12.2432 4.2437 13 3 13C1.34315 13 0 11.6569 0 10C0 8.34315 1.34315 7 3 7C4.2437 7 5.31064 7.75681 5.76541 8.83502C6.00283 8.78315 6.24638 8.71499 6.48686 8.62541C7.4337 8.2727 8.25999 7.62461 8.51875 6.30726C8.94749 4.12461 10.4129 3.0227 11.815 2.50041C12.6708 2.1816 13.5288 2.06588 14.1624 2.02389C14.5674 0.846236 15.6849 0 17 0C18.6569 0 20 1.34315 20 3C20 4.65685 18.6569 6 17 6C15.7043 6 14.6005 5.17861 14.1808 4.02813ZM4 9.99901C3.99947 9.44718 3.55196 9 3 9C2.44772 9 2 9.44771 2 10C2 10.5523 2.44772 11 3 11C3.55196 11 3.99947 10.5528 4 10.001L4 10L4 9.99901ZM17 18C17.5523 18 18 17.5523 18 17C18 16.4477 17.5523 16 17 16C16.4477 16 16 16.4477 16 17C16 17.5523 16.4477 18 17 18Z" fill="black"/>
</svg>

<svg xmlns="http://www.w3.org/2000/svg" viewBox="0 0 20 20">
  <path d="M18 3a1 1 0 1 1-2 0 1 1 0 0 1 2 0m-3.82 1.028a6.2 6.2 0 0 0-1.667.347c-.947.352-1.773 1-2.032 2.318C10.158 8.337 9.247 9.368 8.217 10c1.03.632 1.941 1.663 2.264 3.307.259 1.318 1.085 1.966 2.032 2.318.581.217 1.18.308 1.668.347a3.001 3.001 0 1 1-.019 2.004c-.633-.042-1.491-.158-2.347-.476-1.402-.523-2.868-1.625-3.296-3.807-.259-1.318-1.085-1.966-2.032-2.318a5 5 0 0 0-.722-.21 3 3 0 1 1 0-2.33q.359-.076.722-.21c.947-.352 1.773-1 2.032-2.318.428-2.182 1.894-3.284 3.296-3.807.856-.318 1.714-.434 2.347-.476A3.001 3.001 0 0 1 20 3a3 3 0 0 1-5.82 1.028M4 10a1 1 0 1 0 0 .002zM17 18a1 1 0 1 0 0-2 1 1 0 0 0 0 2"/>
</svg>
